build/img/icon-hired.svg

<svg width="32" height="33" viewBox="0 0 32 33" fill="none" xmlns="http://www.w3.org/2000/svg">
<path d="M28.5547 26.192C28.8947 25.7154 29.0958 25.1304 29.0958 24.4985V20.7218C29.0958 20.3747 28.8184 20.0933 28.4763 20.0933H25.7076C24.4276 20.0933 23.3863 21.1497 23.3863 22.4482V24.4985C23.3863 25.13 23.5872 25.7145 23.9268 26.1911C23.5033 26.2608 23.0958 26.3984 22.7158 26.5999C21.8551 25.2969 20.4448 24.3983 18.8243 24.2467C18.818 24.2449 18.8115 24.2435 18.8052 24.242C19.385 23.5851 19.7384 22.7186 19.7384 21.7695V16.6366C19.7384 16.2894 19.461 16.0081 19.1189 16.0081H15.3558C13.7389 16.0081 12.4235 17.3426 12.4235 18.9829V21.7695C12.4235 22.7185 12.7769 23.5851 13.3567 24.2419C13.3503 24.2435 13.3439 24.2449 13.3376 24.2466C11.7168 24.3982 10.3066 25.297 9.44586 26.6002C9.06573 26.3987 8.65821 26.261 8.23489 26.1913C8.57451 25.7147 8.77554 25.1301 8.77554 24.4985V20.7218C8.77554 20.3747 8.49812 20.0933 8.15602 20.0933H5.38726C4.10733 20.0933 3.06603 21.1497 3.06603 22.4482V24.4985C3.06603 25.1305 3.26719 25.7154 3.60719 26.192C1.68958 26.51 0.221191 28.2018 0.221191 30.2357V32.0977C0.221191 32.4448 0.498613 32.7262 0.840713 32.7262H31.3212C31.6633 32.7262 31.9407 32.4448 31.9407 32.0977V30.2357C31.9407 28.2018 30.4723 26.51 28.5547 26.192ZM4.30508 22.4482C4.30508 21.8428 4.79053 21.3503 5.38726 21.3503H7.5365V22.1158C7.5365 22.4911 7.23554 22.7964 6.86562 22.7964H4.30508V22.4482ZM4.30508 24.0534H6.86562C7.10166 24.0534 7.32766 24.0094 7.5365 23.9296V24.4985C7.5365 25.4022 6.81172 26.1376 5.92079 26.1376C5.02985 26.1376 4.30508 25.4022 4.30508 24.4985V24.0534ZM6.32019 27.3946L5.92079 27.7998L5.52138 27.3946H6.32019ZM8.55698 29.5671V31.4692H1.46023V30.2357C1.46023 28.8261 2.47767 27.6534 3.80655 27.4326L5.48272 29.133C5.59895 29.2509 5.75649 29.3171 5.92079 29.3171C6.08509 29.3171 6.24263 29.2509 6.35885 29.133L8.03552 27.432C8.33166 27.4809 8.61645 27.5777 8.88185 27.7194C8.67196 28.2955 8.55698 28.9179 8.55698 29.5671ZM16.081 24.223C14.7475 24.223 13.6626 23.1224 13.6626 21.7695V20.9388H17.3651C17.7756 20.9388 18.1622 20.8324 18.4994 20.6455V21.7695C18.4994 23.1224 17.4145 24.223 16.081 24.223ZM17.1609 25.4799L16.0809 26.5755L15.001 25.4799H17.1609ZM13.6625 18.9829H13.6625C13.6625 18.0357 14.4221 17.2651 15.3558 17.2651H18.4994V18.5311C18.4994 19.1656 17.9905 19.6819 17.365 19.6819H13.6625V18.9829ZM22.3658 31.4692H21.161H11.0009H9.79608V30.2122H13.83C14.1721 30.2122 14.4496 29.9308 14.4496 29.5837C14.4496 29.2365 14.1721 28.9552 13.83 28.9552H9.84137C10.1069 27.1689 11.5163 25.7589 13.2858 25.5176L15.6429 27.9088C15.7639 28.0315 15.9224 28.0929 16.0809 28.0929C16.2395 28.0929 16.398 28.0315 16.519 27.9088L18.876 25.5176C20.8434 25.7858 22.3658 27.4989 22.3658 29.5671V31.4692ZM24.6254 22.4482C24.6254 21.8428 25.1108 21.3503 25.7076 21.3503H27.8568V22.1158C27.8568 22.4911 27.5558 22.7964 27.1859 22.7964H24.6254V22.4482ZM24.6254 24.0534H27.1859C27.422 24.0534 27.648 24.0094 27.8568 23.9296V24.4985C27.8568 25.4022 27.132 26.1376 26.2411 26.1376C25.3502 26.1376 24.6254 25.4022 24.6254 24.4985V24.0534ZM26.6405 27.3946L26.2411 27.7998L25.8417 27.3946H26.6405ZM23.6048 31.4692V29.5671C23.6048 28.9178 23.4899 28.2954 23.2799 27.7193C23.5452 27.5775 23.8299 27.4807 24.1261 27.4319L25.803 29.133C25.9192 29.2509 26.0767 29.3171 26.241 29.3171C26.4053 29.3171 26.5629 29.2509 26.6791 29.133L28.3553 27.4326C29.6841 27.6535 30.7016 28.8261 30.7016 30.2357V31.4692H23.6048Z"/>
<path d="M19.1336 4.65343C18.8917 4.408 18.4995 4.408 18.2575 4.65343L15.2175 7.73754L13.9033 6.40431C13.6613 6.15882 13.2691 6.15882 13.0271 6.40425C12.7852 6.64967 12.7852 7.04764 13.0271 7.29313L14.7794 9.07078C14.8956 9.18863 15.0532 9.25487 15.2175 9.25487C15.3818 9.25487 15.5393 9.18863 15.6555 9.07078L19.1336 5.54226C19.3756 5.29683 19.3756 4.89886 19.1336 4.65343Z"/>
<path d="M18.6144 1.09199C18.3019 0.950642 17.9356 1.093 17.7962 1.41001C17.6568 1.72703 17.7972 2.09866 18.1097 2.24001C19.9063 3.05285 21.0671 4.86714 21.0671 6.86212C21.0671 9.65116 18.8305 11.9202 16.0813 11.9202C13.3321 11.9202 11.0954 9.65116 11.0954 6.86212C11.0954 4.87745 12.2479 3.06693 14.0315 2.24969C14.3433 2.10683 14.482 1.73451 14.3411 1.41818C14.2003 1.1018 13.8331 0.961201 13.5215 1.10406C11.2951 2.12424 9.85645 4.38439 9.85645 6.86206C9.85638 10.3443 12.6489 13.1772 16.0813 13.1772C19.5137 13.1772 22.3062 10.3443 22.3062 6.86212C22.3062 4.37157 20.857 2.10664 18.6144 1.09199Z"/>
<path d="M16.1031 0.546997H16.0809C15.7388 0.546997 15.4614 0.828377 15.4614 1.1755C15.4614 1.52262 15.7388 1.804 16.0809 1.804H16.0973C16.0983 1.804 16.0992 1.804 16.1003 1.804C16.4411 1.804 16.7181 1.52457 16.7197 1.17845C16.7213 0.831331 16.4453 0.548631 16.1031 0.546997Z"/>
<path d="M16.5189 29.1392C16.4037 29.0223 16.2439 28.9551 16.0809 28.9551C15.918 28.9551 15.7582 29.0223 15.6429 29.1392C15.5277 29.2561 15.4614 29.4183 15.4614 29.5836C15.4614 29.7489 15.5277 29.911 15.6429 30.0279C15.7582 30.1448 15.918 30.2121 16.0809 30.2121C16.2439 30.2121 16.4037 30.1448 16.5189 30.0279C16.6341 29.911 16.7005 29.7489 16.7005 29.5836C16.7005 29.4183 16.6342 29.2561 16.5189 29.1392Z"/>
</svg>

<svg width="32" height="33" fill="none" xmlns="http://www.w3.org/2000/svg"><path d="M28.555 26.192c.34-.477.54-1.062.54-1.694v-3.776a.624.624 0 00-.619-.629h-2.768c-1.28 0-2.322 1.057-2.322 2.355v2.05c0 .632.201 1.216.54 1.693a3.95 3.95 0 00-1.21.409 5.26 5.26 0 00-3.892-2.353l-.019-.005c.58-.657.933-1.523.933-2.473v-5.132a.624.624 0 00-.62-.629h-3.762c-1.617 0-2.932 1.335-2.932 2.975v2.787c0 .948.353 1.815.933 2.472l-.02.005a5.26 5.26 0 00-3.89 2.353 3.952 3.952 0 00-1.211-.409 2.9 2.9 0 00.54-1.692v-3.777a.624.624 0 00-.619-.629h-2.77c-1.28 0-2.321 1.057-2.321 2.355v2.05c0 .633.201 1.217.541 1.694-1.917.318-3.386 2.01-3.386 4.044v1.862c0 .347.278.628.62.628h30.48c.342 0 .62-.281.62-.628v-1.862c0-2.034-1.469-3.726-3.386-4.044zm-24.25-3.744c0-.605.486-1.098 1.082-1.098h2.15v.766c0 .375-.301.68-.671.68h-2.56v-.348zm0 1.605h2.56c.237 0 .463-.044.671-.123v.569c0 .903-.724 1.639-1.615 1.639s-1.616-.736-1.616-1.64v-.445zm2.015 3.342l-.4.405-.399-.405h.8zm2.237 2.172v1.902H1.46v-1.233c0-1.41 1.018-2.583 2.347-2.803l1.676 1.7a.615.615 0 00.876 0l1.677-1.701c.296.049.58.146.846.287a5.388 5.388 0 00-.325 1.848zm7.524-5.344c-1.333 0-2.418-1.1-2.418-2.453v-.831h3.702c.41 0 .797-.107 1.134-.294v1.125c0 1.352-1.084 2.453-2.418 2.453zm1.08 1.257l-1.08 1.096L15 25.48h2.16zm-3.499-6.497c0-.947.76-1.718 1.694-1.718h3.143v1.266c0 .635-.508 1.15-1.134 1.15h-3.702v-.698zm8.704 12.486H9.796v-1.257h4.034c.342 0 .62-.281.62-.628a.624.624 0 00-.62-.629H9.841c.266-1.786 1.675-3.196 3.445-3.437l2.357 2.39a.613.613 0 00.876 0l2.357-2.39c1.967.268 3.49 1.98 3.49 4.05v1.901zm2.26-9.02c0-.606.485-1.099 1.082-1.099h2.149v.766c0 .375-.301.68-.671.68h-2.56v-.348zm0 1.604h2.56c.236 0 .462-.044.67-.123v.569c0 .903-.724 1.639-1.615 1.639-.89 0-1.616-.736-1.616-1.64v-.445zm2.014 3.342l-.399.405-.4-.405h.8zm-3.035 4.074v-1.902c0-.65-.115-1.272-.325-1.848.265-.142.55-.238.846-.287l1.677 1.701a.615.615 0 00.876 0l1.676-1.7c1.33.22 2.347 1.393 2.347 2.803v1.233h-7.097zM19.134 4.653a.613.613 0 00-.877 0l-3.04 3.085-1.314-1.334a.613.613 0 00-.876 0 .635.635 0 000 .89L14.78 9.07a.615.615 0 00.877 0l3.478-3.529a.635.635 0 000-.889z"/><path d="M18.614 1.092a.616.616 0 00-.818.318.632.632 0 00.314.83c1.796.813 2.957 2.627 2.957 4.622 0 2.79-2.236 5.058-4.986 5.058-2.749 0-4.986-2.269-4.986-5.058 0-1.985 1.153-3.795 2.936-4.612a.632.632 0 00.31-.832.616.616 0 00-.82-.314c-2.226 1.02-3.665 3.28-3.665 5.758 0 3.482 2.793 6.315 6.225 6.315 3.433 0 6.225-2.833 6.225-6.315 0-2.49-1.449-4.755-3.692-5.77z"/><path d="M16.103.547h-.022a.624.624 0 00-.62.628c0 .348.278.629.62.629h.019c.341 0 .618-.28.62-.626a.624.624 0 00-.617-.631zm.416 28.593a.62.62 0 00-.438-.185.62.62 0 00-.438.184.638.638 0 000 .889.62.62 0 00.438.184.62.62 0 00.438-.184.638.638 0 000-.889z"/></svg>
